X: 6
T: Dan Collins' Father's
R: jig
M: 6/8
L: 1/8
K: Gmaj
M:12/8
|:BA|G2 D E^DE GAB =d2 B|ded B2 A BGE E^DE|
GDD E^DE GG/A/B =d3|ded B2 A AGF G:|
|:GA|B2 d Bde dBA B2 c|ded B2 A BGE E^DE|
G2 D E^DE GAB =d2 ^c|ded B2 A AGF G:|

